svgs/solid/columns-3.svg

<svg xmlns="http://www.w3.org/2000/svg" viewBox="0 0 640 512"><!--! Font Awesome Pro 6.6.0 by @fontawesome - https://fontawesome.com License - https://fontawesome.com/license (Commercial License) Copyright 2024 Fonticons, Inc. --><path d="M64 32C28.7 32 0 60.7 0 96L0 416c0 35.3 28.7 64 64 64l512 0c35.3 0 64-28.7 64-64l0-320c0-35.3-28.7-64-64-64L64 32zM192 96l0 320L64 416 64 96l128 0zm64 0l128 0 0 320-128 0 0-320zm320 0l0 320-128 0 0-320 128 0z"/></svg>

<svg xmlns="http://www.w3.org/2000/svg" viewBox="0 0 640 512"><!--! Font Awesome Pro 6.4.0 by @fontawesome - https://fontawesome.com License - https://fontawesome.com/license (Commercial License) Copyright 2023 Fonticons, Inc. --><path d="M64 32C28.7 32 0 60.7 0 96V416c0 35.3 28.7 64 64 64H576c35.3 0 64-28.7 64-64V96c0-35.3-28.7-64-64-64H64zM192 96V416H64V96H192zm64 0H384V416H256V96zm320 0V416H448V96H576z"/></svg>
